packages/blockchain-info-components/src/Images/img/banks/bank-logo-us-bank.svg

<svg fill="none" height="32" viewBox="0 0 32 32" width="32" xmlns="http://www.w3.org/2000/svg"><path d="m4 7v14.168l12.0001 4.0831 11.9999-4.0831v-14.168z" fill="#d62a43"/><path clip-rule="evenodd" d="m22.641 12.9048c.2498.1728.4221.4225.4411.7495v.0002h3.4566c-.0948-2.5544-2.6881-3.1518-4.8395-3.1518-1.9976 0-4.7064.6547-4.7064 3.1714 0 1.709 1.1717 2.6309 4.0718 3.1298 1.7674.3074 2.094.4802 2.094 1.056 0 .5777-.7874.7691-1.2871.7691-.4599 0-.8259-.1155-1.0173-.2889-.2888-.2491-.4424-.5369-.4621-.8826h-3.6295c.0568 2.5741 2.6311 3.515 4.9747 3.515 2.4211 0 5.0717-.75 5.0717-3.515 0-1.6333-1.1143-2.3827-2.3822-2.7864-.6706-.2231-1.3893-.3497-2.0115-.4593-.5544-.0976-1.0321-.1818-1.331-.3087-.2111-.0953-.442-.229-.442-.5178 0-.6528.6141-.7687 1.1535-.7687.3062 0 .6143.0962.8452.2882zm-10.3172 7.8178h3.669v-9.9698h-3.8035v5.2636c0 1.594-.8642 1.9204-1.5174 1.9204-1.11496 0-1.2482-.8056-1.2482-1.9589v-5.2253h-3.8037v6.8387c0 2.2861 1.63383 3.381 3.41934 3.381 1.51756 0 2.53656-.5182 3.24686-1.5174h.0376z" fill="#fff" fill-rule="evenodd"/></svg>

<svg width="32" height="32" viewBox="0 0 32 32" fill="none" xmlns="http://www.w3.org/2000/svg">
<path d="M4 7V21.168L16.0001 25.2511L28 21.168V7H4Z" fill="#D62A43"/>
<path fill-rule="evenodd" clip-rule="evenodd" d="M22.641 12.9048C22.8908 13.0776 23.0631 13.3273 23.0821 13.6543V13.6545H26.5387C26.4439 11.1001 23.8506 10.5027 21.6992 10.5027C19.7016 10.5027 16.9928 11.1574 16.9928 13.6741C16.9928 15.3831 18.1645 16.305 21.0646 16.8039C22.832 17.1113 23.1586 17.2841 23.1586 17.8599C23.1586 18.4376 22.3712 18.629 21.8715 18.629C21.4116 18.629 21.0456 18.5135 20.8542 18.3401C20.5654 18.091 20.4118 17.8032 20.3921 17.4575H16.7626C16.8194 20.0316 19.3937 20.9725 21.7373 20.9725C24.1584 20.9725 26.809 20.2225 26.809 17.4575C26.809 15.8242 25.6947 15.0748 24.4268 14.6711C23.7562 14.448 23.0375 14.3214 22.4153 14.2118C21.8609 14.1142 21.3832 14.03 21.0843 13.9031C20.8732 13.8078 20.6423 13.6741 20.6423 13.3853C20.6423 12.7325 21.2564 12.6166 21.7958 12.6166C22.102 12.6166 22.4101 12.7128 22.641 12.9048ZM12.3238 20.7226H15.9928V10.7528H12.1893V16.0164C12.1893 17.6104 11.3251 17.9368 10.6719 17.9368C9.55694 17.9368 9.4237 17.1312 9.4237 15.9779V10.7526H5.62V17.5913C5.62 19.8774 7.25383 20.9723 9.03934 20.9723C10.5569 20.9723 11.5759 20.4541 12.2862 19.4549H12.3238V20.7226Z" fill="white"/>
</svg>
